X: 18940
T: Indo Para Isorga
R: waltz
M: 3/4
K: Eminor
EG GF EB,|C4CB,|GF ED EF|GE FD E2:|
EB BA GF|EB, A,3G|GF ED EF|1 GE FA E2:|2 GE FD E2||

